svg/u1F518.svg

<svg viewBox="0 0 2600 2760.837" xmlns="http://www.w3.org/2000/svg"><path d="M2159 1913.5q-123 215.5-341.5 335.5t-492.5 120q-283 0-517.5-116t-362.5-322-128-468q0-278 128.5-511.5t358.5-364.5 517-131q268 0 489.5 127t346.5 351.5 125 497.5q0 266-123 481.5z m-31.5-847q-70.5-167.5-195.5-288.5-37 0-103.5 42.5t-124.5 94.5q115 79 188.5 219.5t73.5 285.5q0 179-89 333.5t-246 242.5-342 88q-138 0-266.5-51.5t-219.5-138.5q-45 57-71.5 105.5t-35.5 87.5q122 93 287 146t342 53q247 0 448-110.5t313-305.5 112-438q0-198-70.5-365.5z m-416 764q168.5-169.5 168.5-410.5 0-219-168.5-380.5t-397.5-161.5q-263 0-433.5 163.5t-170.5 416.5q0 230 167 386t412 156q254 0 422.5-169.5z m-629.5-602q93-83.5 222-83.5 117 0 200.5 90.5t83.5 211.5q0 124-88 204.5t-212 80.5q-125 0-212-84.5t-87-211.5q0-124 93-207.5z"/></svg>

<svg viewBox="0 0 2600 2760.837" xmlns="http://www.w3.org/2000/svg"><path d="M2159 1913.5Q2036 2129 1817.5 2249T1325 2369q-283 0-517.5-116T445 1931t-128-468q0-278 128.5-511.5T804 587t517-131q268 0 489.5 127T2157 934.5t125 497.5q0 266-123 481.5zm-31.5-847Q2057 899 1932 778q-37 0-103.5 42.5T1704 915q115 79 188.5 219.5T1966 1420q0 179-89 333.5T1631 1996t-342 88q-138 0-266.5-51.5T803 1894q-45 57-71.5 105.5T696 2087q122 93 287 146t342 53q247 0 448-110.5t313-305.5 112-438q0-198-70.5-365.5zm-416 764Q1880 1661 1880 1420q0-219-168.5-380.5T1314 878q-263 0-433.5 163.5T710 1458q0 230 167 386t412 156q254 0 422.5-169.5zm-629.5-602q93-83.5 222-83.5 117 0 200.5 90.5T1588 1447q0 124-88 204.5t-212 80.5q-125 0-212-84.5T989 1436q0-124 93-207.5z"/></svg>
